svg/leaders-fill.svg

<svg width="32" height="32" viewBox="0 0 32 32" fill="none" xmlns="http://www.w3.org/2000/svg"><path d="M19.0805 10.8728C19.0805 12.5557 18.8095 13.1137 18.6115 13.3287C18.4485 13.5047 17.9316 13.8727 16.0807 13.8727C14.2307 13.8727 13.7138 13.5047 13.5508 13.3287C13.3528 13.1137 13.0808 12.5557 13.0808 10.8728C13.0808 9.21589 14.4237 7.87295 16.0807 7.87295C17.7376 7.87295 19.0805 9.21589 19.0805 10.8728Z" fill="#000"/><path fill-rule="evenodd" clip-rule="evenodd" d="M16 32C24.836 32 32 24.836 32 16C32 7.164 24.836 0 16 0C7.164 0 0 7.164 0 16C0 24.836 7.164 32 16 32ZM19.9155 14.8496C20.7944 14.0457 21.0804 12.7457 21.0804 10.8728C21.0804 8.11194 18.8425 5.87305 16.0807 5.87305C13.3198 5.87305 11.0809 8.11194 11.0809 10.8728C11.0809 12.7457 11.3679 14.0457 12.2468 14.8496C10.5819 15.7606 9.27697 17.2455 8.598 19.0384C8.474 19.3664 8.444 19.7464 8.64899 20.0314C9.21797 20.8204 10.3229 19.9204 10.7789 19.0614C11.7868 17.1645 13.7828 15.8726 16.0807 15.8726C18.3785 15.8726 20.3755 17.1645 21.3834 19.0614C21.8394 19.9204 22.9443 20.8204 23.5123 20.0314C23.7173 19.7464 23.6883 19.3664 23.5643 19.0384C22.8843 17.2455 21.5794 15.7606 19.9155 14.8496ZM16.0981 18.127C15.5461 18.127 15.0981 18.575 15.0981 19.127V20.3949L14 19.7609C13.522 19.4849 12.9105 19.648 12.634 20.127C12.358 20.605 12.522 21.217 13 21.493L14.0981 22.127L13 22.7609C12.522 23.0369 12.358 23.6489 12.634 24.127C12.9105 24.6059 13.522 24.769 14 24.493L15.0981 23.859V25.127C15.0981 25.679 15.5461 26.127 16.0981 26.127C16.6511 26.127 17.0981 25.679 17.0981 25.127V23.859L18.1962 24.493C18.6742 24.769 19.2862 24.605 19.5622 24.127C19.8387 23.648 19.6742 23.0369 19.1962 22.7609L18.0981 22.127L19.1962 21.493C19.6742 21.217 19.8387 20.6059 19.5622 20.127C19.2862 19.6489 18.6742 19.4849 18.1962 19.7609L17.0981 20.3949V19.127C17.0981 18.575 16.6511 18.127 16.0981 18.127Z" fill="#000"/></svg>

<svg width="32" height="32" fill="none" xmlns="http://www.w3.org/2000/svg"><path d="M19.08 10.873c0 1.683-.27 2.24-.468 2.456-.163.176-.68.544-2.531.544-1.85 0-2.367-.368-2.53-.544-.198-.215-.47-.773-.47-2.456a3 3 0 1 1 6 0z" fill="#000"/><path fill-rule="evenodd" clip-rule="evenodd" d="M16 32c8.836 0 16-7.164 16-16S24.836 0 16 0 0 7.164 0 16s7.164 16 16 16zm3.916-17.15c.878-.804 1.164-2.104 1.164-3.977a5 5 0 1 0-10 0c0 1.873.288 3.173 1.167 3.977a8.025 8.025 0 0 0-3.649 4.188c-.124.328-.154.708.051.993.569.79 1.674-.11 2.13-.97a6 6 0 1 1 10.605 0c.455.86 1.56 1.76 2.128.97.205-.285.176-.665.052-.993a8.034 8.034 0 0 0-3.648-4.188zm-3.818 3.277a1 1 0 0 0-1 1v1.268L14 19.76a1 1 0 1 0-1 1.732l1.098.634-1.098.634a1 1 0 0 0 1 1.732l1.098-.634v1.268a1 1 0 0 0 2 0v-1.268l1.098.634a1 1 0 0 0 1-1.732l-1.098-.634 1.098-.634a1 1 0 1 0-1-1.732l-1.098.634v-1.268a1 1 0 0 0-1-1z" fill="#000"/></svg>
